COLOR/action 16/16/playlist.svg

<svg height="16" width="16" xmlns="http://www.w3.org/2000/svg"><g fill-rule="evenodd"><path d="m13.339252.5025133c-.11535-.00705-.251138.00152-.411136.01585l-7.226517 1.1277224c-.8152799.083125-.9039352.4635999-.8967147.9378369v9.5426684c-.4143762-.272218-.8578466-.465977-1.4488114-.465977-.7609491 0-1.2152327.291695-1.4899514.675462-.2746838.383787-.3661215.867358-.3661215 1.241282 0 .450935.1555082.931337.4894885 1.298092.3339808.36672.8475618.624533 1.5858628.62455.833719 0 1.4188194-.23254 1.7503345-.68721.2610171-.357987.4066451-.837382.4581403-1.427292.00705-.0715.012325-.14565.01585-.221232.00528-.05987.00528-.101975.00528-.172238h.00351v-7.7218357c.02219-.6208863.5854004-.712659.5854004-.712659l5.8677575-.9162809c.56328-.1722385.563879.5247112.563879.5247112v6.9582624c-.414395-.272218-.857865-.465961-1.448811-.465961-.760985 0-1.215252.291679-1.489953.675448-.2747.383802-.366156.867338-.366156 1.241296 0 .450937.155508.931339.489506 1.298059.333999.366755.847544.624567 1.585863.624585.833719 0 1.41882-.232574 1.750352-.687229.261-.357968.40661-.837383.458105-1.427273.007-.07168.01225-.145646.01584-.22125.0054-.05987.0054-.101975.0054-.172238h.0035v-10.594063c.01238-.6872986-.14073-.8682724-.487513-.8927872z" fill="#ec3c50"/><path d="m13.339844.50195312c-.11535-.00705-.252112.00129501-.41211.015625l-7.2265621 1.12890628c-.8152799.083125-.9037049.463263-.8964844.9375v.5c-.0072205-.474237.0812045-.854375.8964844-.9375l7.2265621-1.1289063c.159998-.01433.29676-.02267498.41211-.015625h.001953c.346783.0245148.500661.2072327.488281.8945313v-.5c.01238-.68729862-.141498-.87001647-.488281-.89453128zm-1.962891 10.15624988c-.760985 0-1.215533.292012-1.4902342.675781-.2747.383802-.3652344.866277-.3652344 1.240235 0 .099195.0100961.200258.0253906.300781.0268279-.338567.1096036-.719331.3398438-1.041016.2747012-.383769.7292492-.675781 1.4902342-.675781.590946 0 1.034824.194579 1.449219.466797v-.5c-.414395-.272218-.858273-.466797-1.449219-.466797zm-8.0214842 1.001953c-.7609491 0-1.2155157.292014-1.4902344.675782-.2746838.383786-.3652344.868263-.3652344 1.242187 0 .099761.0099199.199686.0253906.300781.0267498-.338694.1094789-.721104.3398438-1.042968.2747187-.383768.7292853-.675782 1.4902344-.675782.5909648 0 1.0348425.194579 1.4492187.466797v-.5c-.4143762-.272218-.8582539-.466797-1.4492187-.466797z" fill="#fefefe" opacity=".3"/><path d="m12.447266 3.1152344c-.053924-.0025735-.115137.0038608-.185547.0253906l-5.8671878.9160156c.0000001 0-.5637475.0920044-.5859374.7128906v.5c.0221899-.6208862.5859375-.7128906.5859374-.7128906l5.8671878-.9160156c.56328-.1722385.564453.5253906.564453.5253906v-.5s-.001438-.532767-.378906-.5507812zm1.378906 8.3749996c0 .070263-.00046.112005-.00586.171875-.00359.075604-.008625.149023-.015624.220703-.051495.58989-.197985 1.069767-.458985 1.427735-.331532.454655-.916281.6875-1.75.6875-.738319-.000018-1.251938-.258245-1.585937-.625-.2605269-.286051-.4086574-.641597-.462891-.998047-.0051805.065378-.0253906.138694-.0253906.199219 0 .450937.1542832.932108.4882816 1.298828.333999.366755.847618.624982 1.585937.625.833719 0 1.418468-.232845 1.75-.6875.261-.357968.40749-.837845.458985-1.427735.006999-.07168.012034-.145099.015624-.220703.0054-.05987.00586-.101612.00586-.171875h.003906v-.5zm-8.0214845 1.001954c0 .070262-.0005794.112004-.0058594.171874-.003525.075583-.008575.149204-.015625.220704-.0514952.58991-.1960141 1.069747-.4570312 1.427734-.3315151.45467-.916281.6875-1.75.6875-.738301-.000017-1.2519567-.25828-1.5859375-.625-.2600937-.285618-.4103843-.640221-.4648438-.996094-.0051462.06516-.0253906.138888-.0253906.199219 0 .450935.1562541.93012.4902344 1.296875.3339808.36672.8476365.624983 1.5859375.625.833719 0 1.4184849-.23283 1.75-.6875.2610171-.357987.405536-.837824.4570312-1.427734.00705-.0715.0121-.145121.015625-.220704.00528-.05987.0058594-.101612.0058594-.171874h.0039063v-.5z" opacity=".2"/></g></svg>

<?xml version="1.0" encoding="UTF-8" standalone="no"?>
<!-- Created with Inkscape (http://www.inkscape.org/) -->

<svg
   xmlns:dc="http://purl.org/dc/elements/1.1/"
   xmlns:cc="http://creativecommons.org/ns#"
   xmlns:rdf="http://www.w3.org/1999/02/22-rdf-syntax-ns#"
   xmlns:svg="http://www.w3.org/2000/svg"
   xmlns="http://www.w3.org/2000/svg"
   xmlns:xlink="http://www.w3.org/1999/xlink"
   xmlns:sodipodi="http://sodipodi.sourceforge.net/DTD/sodipodi-0.dtd"
   xmlns:inkscape="http://www.inkscape.org/namespaces/inkscape"
   version="1.1"
   width="16"
   height="16"
   id="svg3916"
   sodipodi:docname="playlist.svg"
   inkscape:version="0.92.4 (5da689c313, 2019-01-14)">
  <metadata
     id="metadata44">
    <rdf:RDF>
      <cc:Work
         rdf:about="">
        <dc:format>image/svg+xml</dc:format>
        <dc:type
           rdf:resource="http://purl.org/dc/dcmitype/StillImage" />
        <dc:title />
      </cc:Work>
    </rdf:RDF>
  </metadata>
  <sodipodi:namedview
     pagecolor="#ffffff"
     bordercolor="#666666"
     borderopacity="1"
     objecttolerance="10"
     gridtolerance="10"
     guidetolerance="10"
     inkscape:pageopacity="0"
     inkscape:pageshadow="2"
     inkscape:window-width="1920"
     inkscape:window-height="1016"
     id="namedview42"
     showgrid="false"
     inkscape:zoom="52.437499"
     inkscape:cx="3.7950515"
     inkscape:cy="8.0000002"
     inkscape:window-x="0"
     inkscape:window-y="27"
     inkscape:window-maximized="1"
     inkscape:current-layer="svg3916" />
  <defs
     id="defs3918">
    <linearGradient
       x1="24.103895"
       y1="15.168831"
       x2="24.103895"
       y2="32.485161"
       id="linearGradient2536"
       xlink:href="#linearGradient3945"
       gradientUnits="userSpaceOnUse"
       gradientTransform="matrix(0.3280315,0,0,0.3257096,24.444958,-10.722212)" />
    <linearGradient
       id="linearGradient3945">
      <stop
         id="stop3947"
         style="stop-color:#ecf5b6;stop-opacity:1"
         offset="0" />
      <stop
         id="stop3949"
         style="stop-color:#9fba48;stop-opacity:1"
         offset="1" />
    </linearGradient>
    <linearGradient
       x1="18.03083"
       y1="16.407909"
       x2="20.054544"
       y2="24.627615"
       id="linearGradient2929"
       xlink:href="#linearGradient8265-821-176-38-919-66-249"
       gradientUnits="userSpaceOnUse"
       gradientTransform="matrix(0.2966887,0,0,0.3520695,1.8805021,2.118629)" />
    <linearGradient
       id="linearGradient8265-821-176-38-919-66-249">
      <stop
         id="stop2687"
         style="stop-color:#ffffff;stop-opacity:0.2"
         offset="0" />
      <stop
         id="stop2689"
         style="stop-color:#ffffff;stop-opacity:0"
         offset="1" />
    </linearGradient>
    <linearGradient
       x1="126.69791"
       y1="58.583481"
       x2="169.22964"
       y2="238.3999"
       id="linearGradient2932"
       xlink:href="#linearGradient2610"
       gradientUnits="userSpaceOnUse"
       gradientTransform="matrix(0.05489342,0.01385132,0.00257263,0.05248166,-0.71280094,-0.2674109)" />
    <linearGradient
       id="linearGradient2610">
      <stop
         id="stop2612"
         style="stop-color:#f0c178;stop-opacity:1"
         offset="0" />
      <stop
         id="stop2614"
         style="stop-color:#e18941;stop-opacity:1"
         offset="0.5" />
      <stop
         id="stop2616"
         style="stop-color:#ec4f18;stop-opacity:1"
         offset="1" />
    </linearGradient>
    <linearGradient
       x1="10.318256"
       y1="14.992862"
       x2="4.1760364"
       y2="4.0514131"
       id="linearGradient2934"
       xlink:href="#linearGradient2603"
       gradientUnits="userSpaceOnUse"
       gradientTransform="matrix(1.0083043,0,0,1.0006232,-8.2398292e-4,-0.0066209)" />
    <linearGradient
       id="linearGradient2603">
      <stop
         id="stop2605"
         style="stop-color:#bb2b12;stop-opacity:1"
         offset="0" />
      <stop
         id="stop2607"
         style="stop-color:#cd7233;stop-opacity:1"
         offset="1" />
    </linearGradient>
    <linearGradient
       x1="302.85715"
       y1="366.64789"
       x2="302.85715"
       y2="609.50507"
       id="linearGradient2915"
       xlink:href="#linearGradient5048"
       gradientUnits="userSpaceOnUse"
       gradientTransform="matrix(2.774389,0,0,1.969706,-1892.179,-872.8854)" />
    <linearGradient
       id="linearGradient5048">
      <stop
         id="stop5050"
         style="stop-color:#000000;stop-opacity:0"
         offset="0" />
      <stop
         id="stop5056"
         style="stop-color:#000000;stop-opacity:1"
         offset="0.5" />
      <stop
         id="stop5052"
         style="stop-color:#000000;stop-opacity:0"
         offset="1" />
    </linearGradient>
    <radialGradient
       cx="605.71429"
       cy="486.64789"
       r="117.14286"
       fx="605.71429"
       fy="486.64789"
       id="radialGradient2917"
       xlink:href="#linearGradient5060"
       gradientUnits="userSpaceOnUse"
       gradientTransform="matrix(2.774389,0,0,1.969706,-1891.633,-872.8854)" />
    <linearGradient
       id="linearGradient5060">
      <stop
         id="stop5062"
         style="stop-color:#000000;stop-opacity:1"
         offset="0" />
      <stop
         id="stop5064"
         style="stop-color:#000000;stop-opacity:0"
         offset="1" />
    </linearGradient>
    <radialGradient
       cx="605.71429"
       cy="486.64789"
       r="117.14286"
       fx="605.71429"
       fy="486.64789"
       id="radialGradient2919"
       xlink:href="#linearGradient5060"
       gradientUnits="userSpaceOnUse"
       gradientTransform="matrix(-2.774389,0,0,1.969706,112.7623,-872.8854)" />
    <clipPath
       clipPathUnits="userSpaceOnUse"
       id="clipPath983">
      <path
         sodipodi:nodetypes="scccssscsss"
         inkscape:connector-curvature="0"
         id="path985"
         d="m 325.09646,237 c -2.80769,0 -3.10979,0.28839 -3.09603,3.10176 V 244 v 3.89824 c -0.0138,2.81337 0.28834,3.10176 3.09603,3.10176 h 5.8075 C 333.71166,251 334,250.71165 334,247.89824 V 244 240.10176 C 334,237.28836 333.71165,237 330.90396,237 Z"
         style="color:#000000;display:inline;overflow:visible;visibility:visible;opacity:1;fill:#46a926;fill-opacity:1;fill-rule:nonzero;stroke:none;stroke-width:2;stroke-miterlimit:4;stroke-dasharray:none;stroke-opacity:1;marker:none;enable-background:accumulate" />
    </clipPath>
    <clipPath
       clipPathUnits="userSpaceOnUse"
       id="clipPath983-3">
      <path
         sodipodi:nodetypes="scccssscsss"
         inkscape:connector-curvature="0"
         id="path985-6"
         d="m 325.09646,237 c -2.80769,0 -3.10979,0.28839 -3.09603,3.10176 V 244 v 3.89824 c -0.0138,2.81337 0.28834,3.10176 3.09603,3.10176 h 5.8075 C 333.71166,251 334,250.71165 334,247.89824 V 244 240.10176 C 334,237.28836 333.71165,237 330.90396,237 Z"
         style="color:#000000;display:inline;overflow:visible;visibility:visible;opacity:1;fill:#46a926;fill-opacity:1;fill-rule:nonzero;stroke:none;stroke-width:2;stroke-miterlimit:4;stroke-dasharray:none;stroke-opacity:1;marker:none;enable-background:accumulate" />
    </clipPath>
  </defs>
  <path
     style="color:#000000;font-style:normal;font-variant:normal;font-weight:normal;font-stretch:normal;font-size:medium;line-height:normal;font-family:sans-serif;font-variant-ligatures:normal;font-variant-position:normal;font-variant-caps:normal;font-variant-numeric:normal;font-variant-alternates:normal;font-feature-settings:normal;text-indent:0;text-align:start;text-decoration:none;text-decoration-line:none;text-decoration-style:solid;text-decoration-color:#000000;letter-spacing:normal;word-spacing:normal;text-transform:none;writing-mode:lr-tb;direction:ltr;text-orientation:mixed;dominant-baseline:auto;baseline-shift:baseline;text-anchor:start;white-space:normal;shape-padding:0;clip-rule:nonzero;display:inline;overflow:visible;visibility:visible;opacity:1;isolation:auto;mix-blend-mode:normal;color-interpolation:sRGB;color-interpolation-filters:linearRGB;solid-color:#000000;solid-opacity:1;vector-effect:none;fill:#ec3c50;fill-opacity:1;fill-rule:evenodd;stroke:none;stroke-width:1.00243044px;stroke-linecap:butt;stroke-linejoin:round;stroke-miterlimit:4;stroke-dasharray:none;stroke-dashoffset:0;stroke-opacity:1;color-rendering:auto;image-rendering:auto;shape-rendering:auto;text-rendering:auto;enable-background:accumulate"
     d="m 13.339252,0.5025133 c -0.11535,-0.00705 -0.251138,0.00152 -0.411136,0.01585 L 5.701599,1.6460857 C 4.8863191,1.7292107 4.7976638,2.1096856 4.8048843,2.5839226 V 12.126591 C 4.3905081,11.854373 3.9470377,11.660614 3.3560729,11.660614 c -0.7609491,0 -1.2152327,0.291695 -1.4899514,0.675462 C 1.5914377,12.719863 1.5,13.203434 1.5,13.577358 c 0,0.450935 0.1555082,0.931337 0.4894885,1.298092 0.3339808,0.36672 0.8475618,0.624533 1.5858628,0.62455 0.833719,0 1.4188194,-0.23254 1.7503345,-0.68721 0.2610171,-0.357987 0.4066451,-0.837382 0.4581403,-1.427292 0.00705,-0.0715 0.012325,-0.14565 0.01585,-0.221232 0.00528,-0.05987 0.00528,-0.101975 0.00528,-0.172238 h 0.00351 V 5.2701923 C 5.8306561,4.649306 6.3938665,4.5575333 6.3938665,4.5575333 L 12.261624,3.6412524 c 0.56328,-0.1722385 0.563879,0.5247112 0.563879,0.5247112 v 6.9582624 c -0.414395,-0.272218 -0.857865,-0.465961 -1.448811,-0.465961 -0.760985,0 -1.215252,0.291679 -1.489953,0.675448 -0.2747,0.383802 -0.366156,0.867338 -0.366156,1.241296 0,0.450937 0.155508,0.931339 0.489506,1.298059 0.333999,0.366755 0.847544,0.624567 1.585863,0.624585 0.833719,0 1.41882,-0.232574 1.750352,-0.687229 0.261,-0.357968 0.40661,-0.837383 0.458105,-1.427273 0.007,-0.07168 0.01225,-0.145646 0.01584,-0.22125 0.0054,-0.05987 0.0054,-0.101975 0.0054,-0.172238 h 0.0035 V 1.3956 c 0.01238,-0.6872986 -0.14073,-0.8682724 -0.487513,-0.8927872 z"
     id="path1954-5"
     inkscape:connector-curvature="0" />
  <path
     style="color:#000000;font-style:normal;font-variant:normal;font-weight:normal;font-stretch:normal;font-size:medium;line-height:normal;font-family:sans-serif;font-variant-ligatures:normal;font-variant-position:normal;font-variant-caps:normal;font-variant-numeric:normal;font-variant-alternates:normal;font-feature-settings:normal;text-indent:0;text-align:start;text-decoration:none;text-decoration-line:none;text-decoration-style:solid;text-decoration-color:#000000;letter-spacing:normal;word-spacing:normal;text-transform:none;writing-mode:lr-tb;direction:ltr;text-orientation:mixed;dominant-baseline:auto;baseline-shift:baseline;text-anchor:start;white-space:normal;shape-padding:0;clip-rule:nonzero;display:inline;overflow:visible;visibility:visible;opacity:0.3;isolation:auto;mix-blend-mode:normal;color-interpolation:sRGB;color-interpolation-filters:linearRGB;solid-color:#000000;solid-opacity:1;vector-effect:none;fill:#fefefe;fill-opacity:1;fill-rule:evenodd;stroke:none;stroke-width:1.00243044px;stroke-linecap:butt;stroke-linejoin:round;stroke-miterlimit:4;stroke-dasharray:none;stroke-dashoffset:0;stroke-opacity:1;color-rendering:auto;image-rendering:auto;shape-rendering:auto;text-rendering:auto;enable-background:accumulate"
     d="M 13.339844 0.50195312 C 13.224494 0.49490312 13.087732 0.50324813 12.927734 0.51757812 L 5.7011719 1.6464844 C 4.885892 1.7296094 4.797467 2.1097474 4.8046875 2.5839844 L 4.8046875 3.0839844 C 4.797467 2.6097474 4.885892 2.2296094 5.7011719 2.1464844 L 12.927734 1.0175781 C 13.087732 1.0032481 13.224494 0.99490312 13.339844 1.0019531 L 13.341797 1.0019531 C 13.68858 1.0264679 13.842458 1.2091858 13.830078 1.8964844 L 13.830078 1.3964844 C 13.842458 0.70918578 13.68858 0.52646793 13.341797 0.50195312 L 13.339844 0.50195312 z M 11.376953 10.658203 C 10.615968 10.658203 10.16142 10.950215 9.8867188 11.333984 C 9.6120188 11.717786 9.5214844 12.200261 9.5214844 12.574219 C 9.5214844 12.673414 9.5315805 12.774477 9.546875 12.875 C 9.5737029 12.536433 9.6564786 12.155669 9.8867188 11.833984 C 10.16142 11.450215 10.615968 11.158203 11.376953 11.158203 C 11.967899 11.158203 12.411777 11.352782 12.826172 11.625 L 12.826172 11.125 C 12.411777 10.852782 11.967899 10.658203 11.376953 10.658203 z M 3.3554688 11.660156 C 2.5945197 11.660156 2.1399531 11.95217 1.8652344 12.335938 C 1.5905506 12.719724 1.5 13.204201 1.5 13.578125 C 1.5 13.677886 1.5099199 13.777811 1.5253906 13.878906 C 1.5521404 13.540212 1.6348695 13.157802 1.8652344 12.835938 C 2.1399531 12.45217 2.5945197 12.160156 3.3554688 12.160156 C 3.9464336 12.160156 4.3903113 12.354735 4.8046875 12.626953 L 4.8046875 12.126953 C 4.3903113 11.854735 3.9464336 11.660156 3.3554688 11.660156 z "
     id="path858" />
  <path
     style="color:#000000;font-style:normal;font-variant:normal;font-weight:normal;font-stretch:normal;font-size:medium;line-height:normal;font-family:sans-serif;font-variant-ligatures:normal;font-variant-position:normal;font-variant-caps:normal;font-variant-numeric:normal;font-variant-alternates:normal;font-feature-settings:normal;text-indent:0;text-align:start;text-decoration:none;text-decoration-line:none;text-decoration-style:solid;text-decoration-color:#000000;letter-spacing:normal;word-spacing:normal;text-transform:none;writing-mode:lr-tb;direction:ltr;text-orientation:mixed;dominant-baseline:auto;baseline-shift:baseline;text-anchor:start;white-space:normal;shape-padding:0;clip-rule:nonzero;display:inline;overflow:visible;visibility:visible;opacity:0.2;isolation:auto;mix-blend-mode:normal;color-interpolation:sRGB;color-interpolation-filters:linearRGB;solid-color:#000000;solid-opacity:1;vector-effect:none;fill:#000000;fill-opacity:1;fill-rule:evenodd;stroke:none;stroke-width:1.00243044px;stroke-linecap:butt;stroke-linejoin:round;stroke-miterlimit:4;stroke-dasharray:none;stroke-dashoffset:0;stroke-opacity:1;color-rendering:auto;image-rendering:auto;shape-rendering:auto;text-rendering:auto;enable-background:accumulate"
     d="M 12.447266 3.1152344 C 12.393342 3.1126609 12.332129 3.1190952 12.261719 3.140625 L 6.3945312 4.0566406 C 6.3945313 4.0566406 5.8307837 4.148645 5.8085938 4.7695312 L 5.8085938 5.2695312 C 5.8307837 4.648645 6.3945313 4.5566406 6.3945312 4.5566406 L 12.261719 3.640625 C 12.824999 3.4683865 12.826172 4.1660156 12.826172 4.1660156 L 12.826172 3.6660156 C 12.826172 3.6660156 12.824734 3.1332486 12.447266 3.1152344 z M 13.826172 11.490234 C 13.826172 11.560497 13.825712 11.602239 13.820312 11.662109 C 13.816722 11.737713 13.811687 11.811132 13.804688 11.882812 C 13.753193 12.472702 13.606703 12.952579 13.345703 13.310547 C 13.014171 13.765202 12.429422 13.998047 11.595703 13.998047 C 10.857384 13.998029 10.343765 13.739802 10.009766 13.373047 C 9.7492391 13.086996 9.6011086 12.73145 9.546875 12.375 C 9.5416945 12.440378 9.5214844 12.513694 9.5214844 12.574219 C 9.5214844 13.025156 9.6757676 13.506327 10.009766 13.873047 C 10.343765 14.239802 10.857384 14.498029 11.595703 14.498047 C 12.429422 14.498047 13.014171 14.265202 13.345703 13.810547 C 13.606703 13.452579 13.753193 12.972702 13.804688 12.382812 C 13.811687 12.311132 13.816722 12.237713 13.820312 12.162109 C 13.825712 12.102239 13.826172 12.060497 13.826172 11.990234 L 13.830078 11.990234 L 13.830078 11.490234 L 13.826172 11.490234 z M 5.8046875 12.492188 C 5.8046875 12.56245 5.8041081 12.604192 5.7988281 12.664062 C 5.7953031 12.739645 5.7902531 12.813266 5.7832031 12.884766 C 5.7317079 13.474676 5.587189 13.954513 5.3261719 14.3125 C 4.9946568 14.76717 4.4098909 15 3.5761719 15 C 2.8378709 14.999983 2.3242152 14.74172 1.9902344 14.375 C 1.7301407 14.089382 1.5798501 13.734779 1.5253906 13.378906 C 1.5202444 13.444066 1.5 13.517794 1.5 13.578125 C 1.5 14.02906 1.6562541 14.508245 1.9902344 14.875 C 2.3242152 15.24172 2.8378709 15.499983 3.5761719 15.5 C 4.4098909 15.5 4.9946568 15.26717 5.3261719 14.8125 C 5.587189 14.454513 5.7317079 13.974676 5.7832031 13.384766 C 5.7902531 13.313266 5.7953031 13.239645 5.7988281 13.164062 C 5.8041081 13.104192 5.8046875 13.06245 5.8046875 12.992188 L 5.8085938 12.992188 L 5.8085938 12.492188 L 5.8046875 12.492188 z "
     id="path863" />
</svg>
